assets/images/logo.svg

<svg fill="none" height="448" viewBox="0 0 2097 448" width="2097" xmlns="http://www.w3.org/2000/svg"><path clip-rule="evenodd" d="m189.695 14.3458-123.671 50.8459-35.0976 84.1073 94.5736 111.043 97.934-194.3612zm-189.695 209.0652 28.7802-68.969 94.2938 110.714-58.3222 115.749zm68.9799 160.144 57.5901-114.294 42.541 49.949-54.516 83.38zm50.2791 20.981 53.21-81.383 91.965 107.979-41.023 16.866zm56.045-85.718 93.964 110.327 67.678-27.825 45.979-91.252-100.919-154.448zm210.763-3.943-42.104 83.56 38.011-15.628 18.895-45.278zm2.584-5.128 51.961-103.124 7.386 17.965-44.816 107.397zm49.461-109.205-52.603 104.397-100.534-153.859 64.661-98.8978 33.171 13.8418zm-309.116 63.904 42.949 50.429 107.094-163.796-52.463-80.2907zm153.011-117.908-52.847-80.8783 26.542-52.676 89.27 37.2522zm-55.989-85.6858-31.645-48.4299 30.215-12.42230653 26.517 11.06540653z" fill="#3eafef" fill-rule="evenodd"/><path d="m582.6 322v-211.5h87.6c22.8 0 40.4 5.7 52.8 17.1 12.4 11.2 18.6 27 18.6 47.4 0 20.6-6.2 36.6-18.6 48-12.4 11.2-30 16.8-52.8 16.8h-56.4v82.2zm31.2-107.1h51.9c30.4 0 45.6-13.3 45.6-39.9 0-26.4-15.2-39.6-45.6-39.6h-51.9zm214.256 109.8c-14.8 0-27.6-3.1-38.4-9.3s-19.2-14.9-25.2-26.1c-5.8-11.4-8.7-24.9-8.7-40.5s2.9-29 8.7-40.2c6-11.4 14.4-20.2 25.2-26.4s23.6-9.3 38.4-9.3c14.4 0 27 3.1 37.8 9.3s19.2 15 25.2 26.4c6 11.2 9 24.6 9 40.2s-3 29.1-9 40.5c-6 11.2-14.4 19.9-25.2 26.1s-23.4 9.3-37.8 9.3zm0-23.4c12.4 0 22.4-4.5 30-13.5s11.4-22 11.4-39-3.8-29.9-11.4-38.7c-7.6-9-17.6-13.5-30-13.5-12.6 0-22.7 4.5-30.3 13.5-7.6 8.8-11.4 21.7-11.4 38.7s3.8 30 11.4 39 17.7 13.5 30.3 13.5zm153.729 23.4c-16 0-28-4.5-36-13.5-7.8-9-11.7-22.2-11.7-39.6v-161.1h30.3v159.3c0 19.8 8.1 29.7 24.3 29.7 2.4 0 4.6-.1 6.6-.3 2.2-.2 4.4-.6 6.605-1.2l-.6 24.3c-6.805 1.6-13.305 2.4-19.505 2.4zm111.235 0c-24 0-42.9-6.7-56.7-20.1-13.8-13.6-20.7-32.1-20.7-55.5 0-15 3-28.2 9-39.6 6.2-11.6 14.7-20.6 25.5-27s23.2-9.6 37.2-9.6c20.2 0 36.1 6.5 47.7 19.5 11.6 12.8 17.4 30.5 17.4 53.1v10.2h-107.4c2.2 30.4 18.3 45.6 48.3 45.6 8.4 0 16.6-1.3 24.6-3.9 8.2-2.6 15.9-6.9 23.1-12.9l9 21c-6.6 6-15.1 10.7-25.5 14.1s-20.9 5.1-31.5 5.1zm-4.5-130.5c-12.6 0-22.6 3.9-30 11.7s-11.9 18.2-13.5 31.2h81.9c-.6-13.6-4.2-24.1-10.8-31.5-6.6-7.6-15.8-11.4-27.6-11.4zm159.04 130.5c-18.4 0-32.1-4.7-41.1-14.1s-13.5-23-13.5-40.8v-70.8h-28.5v-23.4h28.5v-44.1h30.3v44.1h45.3v23.4h-45.3v68.4c0 10.6 2.2 18.6 6.6 24 4.6 5.4 12 8.1 22.2 8.1 3.2 0 6.3-.3 9.3-.9 3-.8 6-1.7 9-2.7l4.8 22.8c-3 1.8-7.2 3.2-12.6 4.2-5.2 1.2-10.2 1.8-15 1.8zm103.71 0c-18.4 0-32.1-4.7-41.1-14.1s-13.5-23-13.5-40.8v-70.8h-28.5v-23.4h28.5v-44.1h30.3v44.1h45.3v23.4h-45.3v68.4c0 10.6 2.2 18.6 6.6 24 4.6 5.4 12 8.1 22.2 8.1 3.2 0 6.3-.3 9.3-.9 3-.8 6-1.7 9-2.7l4.8 22.8c-3 1.8-7.2 3.2-12.6 4.2-5.2 1.2-10.2 1.8-15 1.8zm109.31 0c-14.8 0-27.6-3.1-38.4-9.3s-19.2-14.9-25.2-26.1c-5.8-11.4-8.7-24.9-8.7-40.5s2.9-29 8.7-40.2c6-11.4 14.4-20.2 25.2-26.4s23.6-9.3 38.4-9.3c14.4 0 27 3.1 37.8 9.3s19.2 15 25.2 26.4c6 11.2 9 24.6 9 40.2s-3 29.1-9 40.5c-6 11.2-14.4 19.9-25.2 26.1s-23.4 9.3-37.8 9.3zm0-23.4c12.4 0 22.4-4.5 30-13.5s11.4-22 11.4-39-3.8-29.9-11.4-38.7c-7.6-9-17.6-13.5-30-13.5-12.6 0-22.7 4.5-30.3 13.5-7.6 8.8-11.4 21.7-11.4 38.7s3.8 30 11.4 39 17.7 13.5 30.3 13.5zm96.57 20.7v-35.7h35.7v35.7zm124.73 2.7c-12.8 0-24.1-3-33.9-9-9.6-6.2-17.1-15-22.5-26.4s-8.1-24.9-8.1-40.5 2.7-29 8.1-40.2c5.4-11.4 12.9-20.2 22.5-26.4s20.9-9.3 33.9-9.3c11 0 20.8 2.4 29.4 7.2s15 11.3 19.2 19.5v-89.1h30.3v211.5h-29.7v-25.5c-4.2 8.8-10.7 15.7-19.5 20.7-8.6 5-18.5 7.5-29.7 7.5zm7.8-23.4c12.4 0 22.4-4.5 30-13.5s11.4-22 11.4-39-3.8-29.9-11.4-38.7c-7.6-9-17.6-13.5-30-13.5-12.6 0-22.7 4.5-30.3 13.5-7.6 8.8-11.4 21.7-11.4 38.7s3.8 30 11.4 39 17.7 13.5 30.3 13.5zm182.34 23.4c-24 0-42.9-6.7-56.7-20.1-13.8-13.6-20.7-32.1-20.7-55.5 0-15 3-28.2 9-39.6 6.2-11.6 14.7-20.6 25.5-27s23.2-9.6 37.2-9.6c20.2 0 36.1 6.5 47.7 19.5 11.6 12.8 17.4 30.5 17.4 53.1v10.2h-107.4c2.2 30.4 18.3 45.6 48.3 45.6 8.4 0 16.6-1.3 24.6-3.9 8.2-2.6 15.9-6.9 23.1-12.9l9 21c-6.6 6-15.1 10.7-25.5 14.1s-20.9 5.1-31.5 5.1zm-4.5-130.5c-12.6 0-22.6 3.9-30 11.7s-11.9 18.2-13.5 31.2h81.9c-.6-13.6-4.2-24.1-10.8-31.5-6.6-7.6-15.8-11.4-27.6-11.4zm137.79 127.8-63-146.4h32.7l44.7 111.3 45.9-111.3h30.9l-63.9 146.4z" fill="#fff" fill-opacity=".85"/></svg>

<svg width="2097" height="448" viewBox="0 0 2097 448" fill="none" xmlns="http://www.w3.org/2000/svg">
<path fill-rule="evenodd" clip-rule="evenodd" d="M189.695 14.3458L66.024 65.1917L30.9264 149.299L125.5 260.342L223.434 65.9808L189.695 14.3458ZM0 223.411L28.7802 154.442L123.074 265.156L64.7518 380.905L0 223.411ZM68.9799 383.555L126.57 269.261L169.111 319.21L114.595 402.59L68.9799 383.555ZM119.259 404.536L172.469 323.153L264.434 431.132L223.411 447.998L119.259 404.536ZM175.304 318.818L269.268 429.145L336.946 401.32L382.925 310.068L282.006 155.62L175.304 318.818ZM386.067 314.875L343.963 398.435L381.974 382.807L400.869 337.529L386.067 314.875ZM388.651 309.747L440.612 206.623L447.998 224.588L403.182 331.985L388.651 309.747ZM438.112 200.542L385.509 304.939L284.975 151.08L349.636 52.1822L382.807 66.024L438.112 200.542ZM128.996 264.446L171.945 314.875L279.039 151.079L226.576 70.7883L128.996 264.446ZM282.007 146.538L229.16 65.6597L255.702 12.9837L344.972 50.2359L282.007 146.538ZM226.018 60.8522L194.373 12.4223L224.588 -6.53416e-06L251.105 11.0654L226.018 60.8522Z" fill="#3EAFEF"/>
<path d="M582.6 322V110.5H670.2C693 110.5 710.6 116.2 723 127.6C735.4 138.8 741.6 154.6 741.6 175C741.6 195.6 735.4 211.6 723 223C710.6 234.2 693 239.8 670.2 239.8H613.8V322H582.6ZM613.8 214.9H665.7C696.1 214.9 711.3 201.6 711.3 175C711.3 148.6 696.1 135.4 665.7 135.4H613.8V214.9ZM828.056 324.7C813.256 324.7 800.456 321.6 789.656 315.4C778.856 309.2 770.456 300.5 764.456 289.3C758.656 277.9 755.756 264.4 755.756 248.8C755.756 233.2 758.656 219.8 764.456 208.6C770.456 197.2 778.856 188.4 789.656 182.2C800.456 176 813.256 172.9 828.056 172.9C842.456 172.9 855.056 176 865.856 182.2C876.656 188.4 885.056 197.2 891.056 208.6C897.056 219.8 900.056 233.2 900.056 248.8C900.056 264.4 897.056 277.9 891.056 289.3C885.056 300.5 876.656 309.2 865.856 315.4C855.056 321.6 842.456 324.7 828.056 324.7ZM828.056 301.3C840.456 301.3 850.456 296.8 858.056 287.8C865.656 278.8 869.456 265.8 869.456 248.8C869.456 231.8 865.656 218.9 858.056 210.1C850.456 201.1 840.456 196.6 828.056 196.6C815.456 196.6 805.356 201.1 797.756 210.1C790.156 218.9 786.356 231.8 786.356 248.8C786.356 265.8 790.156 278.8 797.756 287.8C805.356 296.8 815.456 301.3 828.056 301.3ZM981.785 324.7C965.785 324.7 953.785 320.2 945.785 311.2C937.985 302.2 934.085 289 934.085 271.6V110.5H964.385V269.8C964.385 289.6 972.485 299.5 988.685 299.5C991.085 299.5 993.285 299.4 995.285 299.2C997.485 299 999.685 298.6 1001.89 298L1001.29 322.3C994.485 323.9 987.985 324.7 981.785 324.7ZM1093.02 324.7C1069.02 324.7 1050.12 318 1036.32 304.6C1022.52 291 1015.62 272.5 1015.62 249.1C1015.62 234.1 1018.62 220.9 1024.62 209.5C1030.82 197.9 1039.32 188.9 1050.12 182.5C1060.92 176.1 1073.32 172.9 1087.32 172.9C1107.52 172.9 1123.42 179.4 1135.02 192.4C1146.62 205.2 1152.42 222.9 1152.42 245.5V255.7H1045.02C1047.22 286.1 1063.32 301.3 1093.32 301.3C1101.72 301.3 1109.92 300 1117.92 297.4C1126.12 294.8 1133.82 290.5 1141.02 284.5L1150.02 305.5C1143.42 311.5 1134.92 316.2 1124.52 319.6C1114.12 323 1103.62 324.7 1093.02 324.7ZM1088.52 194.2C1075.92 194.2 1065.92 198.1 1058.52 205.9C1051.12 213.7 1046.62 224.1 1045.02 237.1H1126.92C1126.32 223.5 1122.72 213 1116.12 205.6C1109.52 198 1100.32 194.2 1088.52 194.2ZM1247.56 324.7C1229.16 324.7 1215.46 320 1206.46 310.6C1197.46 301.2 1192.96 287.6 1192.96 269.8V199H1164.46V175.6H1192.96V131.5H1223.26V175.6H1268.56V199H1223.26V267.4C1223.26 278 1225.46 286 1229.86 291.4C1234.46 296.8 1241.86 299.5 1252.06 299.5C1255.26 299.5 1258.36 299.2 1261.36 298.6C1264.36 297.8 1267.36 296.9 1270.36 295.9L1275.16 318.7C1272.16 320.5 1267.96 321.9 1262.56 322.9C1257.36 324.1 1252.36 324.7 1247.56 324.7ZM1351.27 324.7C1332.87 324.7 1319.17 320 1310.17 310.6C1301.17 301.2 1296.67 287.6 1296.67 269.8V199H1268.17V175.6H1296.67V131.5H1326.97V175.6H1372.27V199H1326.97V267.4C1326.97 278 1329.17 286 1333.57 291.4C1338.17 296.8 1345.57 299.5 1355.77 299.5C1358.97 299.5 1362.07 299.2 1365.07 298.6C1368.07 297.8 1371.07 296.9 1374.07 295.9L1378.87 318.7C1375.87 320.5 1371.67 321.9 1366.27 322.9C1361.07 324.1 1356.07 324.7 1351.27 324.7ZM1460.58 324.7C1445.78 324.7 1432.98 321.6 1422.18 315.4C1411.38 309.2 1402.98 300.5 1396.98 289.3C1391.18 277.9 1388.28 264.4 1388.28 248.8C1388.28 233.2 1391.18 219.8 1396.98 208.6C1402.98 197.2 1411.38 188.4 1422.18 182.2C1432.98 176 1445.78 172.9 1460.58 172.9C1474.98 172.9 1487.58 176 1498.38 182.2C1509.18 188.4 1517.58 197.2 1523.58 208.6C1529.58 219.8 1532.58 233.2 1532.58 248.8C1532.58 264.4 1529.58 277.9 1523.58 289.3C1517.58 300.5 1509.18 309.2 1498.38 315.4C1487.58 321.6 1474.98 324.7 1460.58 324.7ZM1460.58 301.3C1472.98 301.3 1482.98 296.8 1490.58 287.8C1498.18 278.8 1501.98 265.8 1501.98 248.8C1501.98 231.8 1498.18 218.9 1490.58 210.1C1482.98 201.1 1472.98 196.6 1460.58 196.6C1447.98 196.6 1437.88 201.1 1430.28 210.1C1422.68 218.9 1418.88 231.8 1418.88 248.8C1418.88 265.8 1422.68 278.8 1430.28 287.8C1437.88 296.8 1447.98 301.3 1460.58 301.3ZM1557.15 322V286.3H1592.85V322H1557.15ZM1681.88 324.7C1669.08 324.7 1657.78 321.7 1647.98 315.7C1638.38 309.5 1630.88 300.7 1625.48 289.3C1620.08 277.9 1617.38 264.4 1617.38 248.8C1617.38 233.2 1620.08 219.8 1625.48 208.6C1630.88 197.2 1638.38 188.4 1647.98 182.2C1657.58 176 1668.88 172.9 1681.88 172.9C1692.88 172.9 1702.68 175.3 1711.28 180.1C1719.88 184.9 1726.28 191.4 1730.48 199.6V110.5H1760.78V322H1731.08V296.5C1726.88 305.3 1720.38 312.2 1711.58 317.2C1702.98 322.2 1693.08 324.7 1681.88 324.7ZM1689.68 301.3C1702.08 301.3 1712.08 296.8 1719.68 287.8C1727.28 278.8 1731.08 265.8 1731.08 248.8C1731.08 231.8 1727.28 218.9 1719.68 210.1C1712.08 201.1 1702.08 196.6 1689.68 196.6C1677.08 196.6 1666.98 201.1 1659.38 210.1C1651.78 218.9 1647.98 231.8 1647.98 248.8C1647.98 265.8 1651.78 278.8 1659.38 287.8C1666.98 296.8 1677.08 301.3 1689.68 301.3ZM1872.02 324.7C1848.02 324.7 1829.12 318 1815.32 304.6C1801.52 291 1794.62 272.5 1794.62 249.1C1794.62 234.1 1797.62 220.9 1803.62 209.5C1809.82 197.9 1818.32 188.9 1829.12 182.5C1839.92 176.1 1852.32 172.9 1866.32 172.9C1886.52 172.9 1902.42 179.4 1914.02 192.4C1925.62 205.2 1931.42 222.9 1931.42 245.5V255.7H1824.02C1826.22 286.1 1842.32 301.3 1872.32 301.3C1880.72 301.3 1888.92 300 1896.92 297.4C1905.12 294.8 1912.82 290.5 1920.02 284.5L1929.02 305.5C1922.42 311.5 1913.92 316.2 1903.52 319.6C1893.12 323 1882.62 324.7 1872.02 324.7ZM1867.52 194.2C1854.92 194.2 1844.92 198.1 1837.52 205.9C1830.12 213.7 1825.62 224.1 1824.02 237.1H1905.92C1905.32 223.5 1901.72 213 1895.12 205.6C1888.52 198 1879.32 194.2 1867.52 194.2ZM2005.31 322L1942.31 175.6H1975.01L2019.71 286.9L2065.61 175.6H2096.51L2032.61 322H2005.31Z" fill="white" fill-opacity="0.85"/>
</svg>
